dist/images/shape-green.svg

<?xml version="1.0" encoding="UTF-8"?>
<svg width="48px" height="48px" viewBox="0 0 48 48" version="1.1" xmlns="http://www.w3.org/2000/svg" xmlns:xlink="http://www.w3.org/1999/xlink">
    <!-- Generator: sketchtool 49 (51002) - http://www.bohemiancoding.com/sketch -->
    <title>F75FCCB7-F273-43C8-89A3-4A9330AA92AF</title>
    <desc>Created with sketchtool.</desc>
    <defs></defs>
    <g id="Symbols" stroke="none" stroke-width="1" fill="none" fill-rule="evenodd">
        <g id="Elemets-/-header" transform="translate(-160.000000, -72.000000)" fill="#40b550" fill-rule="nonzero">
            <g id="logo" transform="translate(160.000000, 72.000000)">
                <path d="M38.3062419,39.3348454 C30.9676619,45.5991341 20.1491255,46.3509264 11.9367913,41.0073333 C11.1443191,40.4916883 10.3964215,39.932497 9.69469383,39.3348794 L1.03489579,48 L1.33226763e-15,46.9651042 L8.6150381,38.3500661 C2.52655256,32.4032016 0.535661101,23.3446965 3.94018518,15.3402323 C4.94463393,12.9786471 6.34783687,10.8754785 8.04854312,9.08343891 L1.33226763e-15,1.03489579 L1.03489579,1.33226763e-15 L9.09187118,8.05697539 C14.0774283,3.47681924 21.1579144,1.32438919 28.2328684,2.69320728 C32.3604451,3.49178514 36.0191709,5.3985215 38.9089015,8.05750929 L46.9709172,1.33226763e-15 L48,1.03489579 L39.9487543,9.08164111 C43.5513659,12.8794954 45.7124054,17.9433961 45.7142729,23.422423 L39.1937433,23.422423 C39.1926042,19.489736 37.5769416,15.7206695 34.7063556,12.9541098 C29.5763746,7.95991578 21.5375299,7.18962879 15.5061042,11.11433 C9.47467845,15.0390312 7.13052879,22.5656229 9.90725701,29.091099 C12.6839852,35.616575 19.8082242,39.3234766 26.9230328,37.9447895 C34.0378414,36.5661023 39.1616216,30.4858148 39.1608446,23.422423 L42.4507182,23.422423 L45.7142729,23.422423 C45.7205224,29.0202359 43.4423445,34.3905109 39.3821339,38.3520552 L48,46.9651042 L46.9709172,48 L38.3062419,39.3348454 Z" id="Shape"></path>
            </g>
        </g>
    </g>
</svg>

<svg width="48" height="48" viewBox="0 0 48 48" xmlns="http://www.w3.org/2000/svg"><title>F75FCCB7-F273-43C8-89A3-4A9330AA92AF</title><path d="M38.306 39.335c-7.338 6.264-18.157 7.016-26.37 1.672a21.762 21.762 0 0 1-2.241-1.672L1.035 48 0 46.965l8.615-8.615C2.527 32.403.535 23.345 3.94 15.34a21.041 21.041 0 0 1 4.11-6.257L0 1.035 1.035 0l8.057 8.057c4.985-4.58 12.066-6.733 19.14-5.364A21.863 21.863 0 0 1 38.91 8.058L46.97 0 48 1.035l-8.051 8.047c3.602 3.797 5.763 8.861 5.765 14.34h-6.52c-.001-3.932-1.617-7.701-4.488-10.468-5.13-4.994-13.168-5.764-19.2-1.84-6.031 3.925-8.375 11.452-5.599 17.977 2.777 6.526 9.901 10.232 17.016 8.854 7.115-1.379 12.239-7.46 12.238-14.523h6.553c.007 5.598-2.272 10.969-6.332 14.93L48 46.965 46.97 48l-8.664-8.665z" fill="#40b550"/></svg>
